src/icons/SVG/24px/User_Account_Profile--Man_24px.svg

<svg width="24" height="24" viewBox="0 0 24 24" fill="none" xmlns="http://www.w3.org/2000/svg">
  <g id="Square"> </g>
  <g id="Icon">
<path id="&#240;&#159;&#142;&#168; Color" fill-rule="evenodd" clip-rule="evenodd" d="M17.2599 14.71L21.1799 15.42C21.6572 15.5073 22.003 15.9248 21.9999 16.41V21C21.9999 21.5523 21.5522 22 20.9999 22H3.0099C2.45762 22 2.0099 21.5523 2.0099 21V16.41C2.00192 15.921 2.34881 15.498 2.8299 15.41L6.7499 14.7L7.5199 13.7C7.66253 13.5126 7.91662 13.4501 8.1299 13.55L11.9999 15.44L15.8799 13.56C16.0932 13.4601 16.3473 13.5226 16.4899 13.71L17.2599 14.71ZM16.2299 15.01L15.9399 14.63L12.7299 16.2L13.9999 18.12L16.2299 15.01ZM8.0599 14.63L11.2699 16.2L9.9999 18.12L7.7699 15L8.0599 14.63ZM3.9999 17.24V20H19.9999L19.9899 17.24L16.3299 16.58L14.3999 19.29C14.3034 19.42 14.1518 19.4977 13.9899 19.5C13.8266 19.4938 13.6753 19.4126 13.5799 19.28L11.9999 16.9L10.4099 19.28C10.3145 19.4126 10.1632 19.4938 9.9999 19.5C9.83799 19.4977 9.68642 19.42 9.5899 19.29L7.6599 16.58L3.9999 17.24ZM11.9999 14C13.326 14 14.5978 13.4732 15.5354 12.5355C16.4731 11.5979 16.9999 10.3261 16.9999 9.00001V7.92001C17.3071 7.72868 17.5921 7.50399 17.8499 7.25001C17.9934 7.12881 18.0568 6.93742 18.0142 6.75451C17.9715 6.57159 17.83 6.42801 17.6477 6.38277C17.4654 6.33753 17.2731 6.39826 17.1499 6.54001L16.9999 6.68001C16.9115 3.91859 14.6013 1.75165 11.8399 1.84001C9.07848 1.92838 6.91153 4.23859 6.9999 7.00001V9.00001C6.9999 11.7614 9.23848 14 11.9999 14ZM14.9999 9.00001C14.9999 10.6569 13.6568 12 11.9999 12C10.343 12 8.9999 10.6569 8.9999 9.00001V8.58001C9.67205 8.37742 10.279 8.00149 10.7599 7.49001C11.7098 8.30348 12.9193 8.75039 14.1699 8.75001C14.4482 8.74368 14.7256 8.71694 14.9999 8.67001V9.00001ZM11.9999 4.00001C13.6568 4.00001 14.9999 5.34316 14.9999 7.00001V7.67001C14.7262 7.72186 14.4484 7.74864 14.1699 7.75001C12.9963 7.74833 11.8752 7.2637 11.0699 6.41001L10.6499 6.00001L10.2999 6.51001C9.97223 6.96189 9.52071 7.30921 8.9999 7.51001V7.00001C8.9999 5.34316 10.343 4.00001 11.9999 4.00001Z" fill="black"/>
</g>
</svg>

<svg xmlns="http://www.w3.org/2000/svg" viewBox="0 0 24 24">
  <g id="Square"> </g>
  <path fill-rule="evenodd" d="M17.26 14.71l3.92.71a1 1 0 01.82.99V21a1 1 0 01-1 1H3.01a1 1 0 01-1-1v-4.59a1 1 0 01.82-1l3.92-.71.77-1a.5.5 0 01.61-.15L12 15.44l3.88-1.88a.5.5 0 01.61.15l.77 1zm-1.03.3l-.29-.38-3.21 1.57L14 18.12l2.23-3.11zm-8.17-.38l3.21 1.57L10 18.12 7.77 15l.29-.37zM4 17.24V20h16l-.01-2.76-3.66-.66-1.93 2.71a.52.52 0 01-.41.21.53.53 0 01-.41-.22L12 16.9l-1.59 2.38a.53.53 0 01-.41.22.52.52 0 01-.41-.21l-1.93-2.71-3.66.66zM12 14a5 5 0 005-5V7.92c.307-.191.592-.416.85-.67a.5.5 0 10-.7-.71l-.15.14A5.003 5.003 0 007 7v2a5 5 0 005 5zm3-5a3 3 0 11-6 0v-.42a4 4 0 001.76-1.09 5.24 5.24 0 003.41 1.26c.278-.006.556-.033.83-.08V9zm-3-5a3 3 0 013 3v.67a4.27 4.27 0 01-3.93-1.26L10.65 6l-.35.51c-.328.452-.78.8-1.3 1V7a3 3 0 013-3z"/>
</svg>
